svgs/light/face-clouds.svg

<svg xmlns="http://www.w3.org/2000/svg" viewBox="0 0 640 512"><!--! Font Awesome Pro 6.4.0 by @fontawesome - https://fontawesome.com License - https://fontawesome.com/license (Commercial License) Copyright 2023 Fonticons, Inc. --><path d="M99.8 54.9C97.2 60.4 91.6 64 85.4 64H64C46.3 64 32 78.3 32 96s14.3 32 32 32H216c22.1 0 40-17.9 40-40s-17.9-40-40-40c-8.7 0-16.6 2.7-23.2 7.4c-3.6 2.6-8.1 3.5-12.4 2.7s-8.1-3.5-10.4-7.2C162.9 39.5 150.3 32 136 32c-15.9 0-29.7 9.3-36.2 22.9zM136 0c20.3 0 38.6 8.4 51.6 21.8c8.7-3.7 18.3-5.8 28.4-5.8c39.8 0 72 32.2 72 72s-32.2 72-72 72H64C28.7 160 0 131.3 0 96S28.7 32 64 32H76.1C89 12.7 111 0 136 0zM288.3 1.9C298.7 .7 309.3 0 320 0C461.4 0 576 114.6 576 256c0 7.3-.3 14.5-.9 21.7c-9.4-6-20-10.2-31.3-12.2c.1-3.1 .2-6.3 .2-9.4C544 132.3 443.7 32 320 32c-3.6 0-7.1 .1-10.7 .2C304 21 296.9 10.8 288.3 1.9zM96 256c0 90.7 54 168.9 131.6 204.1c4 15.5 11.2 29.7 20.9 41.8C141.9 470.9 64 372.6 64 256c0-22.1 2.8-43.5 8.1-64h33.2c-6 20.3-9.3 41.8-9.3 64zm120.4-48a24 24 0 1 1 48 0 24 24 0 1 1 -48 0zm184-24a24 24 0 1 1 0 48 24 24 0 1 1 0-48zM416 304c-35.3 0-64 28.7-64 64c0 8.8-7.2 16-16 16c-26.5 0-48 21.5-48 48s21.5 48 48 48H560c26.5 0 48-21.5 48-48c0-24.7-18.6-45-42.5-47.7c-4.4-.5-8.4-2.8-11-6.3s-3.7-8-2.9-12.4c.3-1.8 .5-3.7 .5-5.6c0-17.7-14.3-32-32-32c-9.2 0-17.6 3.9-23.4 10.2c-3.4 3.7-8.4 5.5-13.4 5s-9.5-3.4-12-7.8C459.9 316.6 439.4 304 416 304zm-94.9 49.4c7-46.1 46.8-81.4 94.9-81.4c28.7 0 54.5 12.6 72 32.5c9.4-5.4 20.3-8.5 32-8.5c33.9 0 61.6 26.3 63.9 59.6C616.4 365.8 640 396.1 640 432c0 44.2-35.8 80-80 80H336c-44.2 0-80-35.8-80-80c0-39.1 28-71.6 65.1-78.6z"/></svg>

<svg xmlns="http://www.w3.org/2000/svg" viewBox="0 0 640 512"><!--! Font Awesome Pro 6.3.0 by @fontawesome - https://fontawesome.com License - https://fontawesome.com/license (Commercial License) Copyright 2023 Fonticons, Inc. --><path d="M187.6 21.81C196.3 18.07 205.9 16 216 16C255.8 16 288 48.24 288 88C288 127.8 255.8 160 216 160H64C28.65 160 0 131.3 0 96C0 60.65 28.65 32 64 32H76.13C89.03 12.72 111 0 136 0C156.3 0 174.6 8.374 187.6 21.81zM95.5 64H64C46.33 64 32 78.33 32 96C32 113.7 46.33 128 64 128H216C238.1 128 256 110.1 256 88C256 65.91 238.1 48 216 48C207.3 48 199.4 50.74 192.8 55.4L178.1 65.27L169.1 50.85C162.9 39.5 150.3 32 136 32C120.1 32 106.3 41.31 99.84 54.87L95.5 64zM320 0C461.4 0 576 114.6 576 256C576 263.3 575.7 270.5 575.1 277.7C565.7 271.7 555.1 267.5 543.8 265.4C543.9 262.3 544 259.2 544 256C544 132.3 443.7 32 319.1 32C316.4 32 312.9 32.08 309.3 32.25C304 20.99 296.9 10.76 288.3 1.941C298.7 .6602 309.3 .0003 319.1 .0003L320 0zM96 256C96 346.7 149.1 424.9 227.6 460.1C231.6 475.6 238.8 489.7 248.5 501.9C141.9 470.9 64 372.6 64 256C64 233.9 66.8 212.5 72.06 192H105.3C99.24 212.3 95.1 233.8 95.1 256H96zM264.4 208C264.4 221.3 253.6 232 240.4 232C227.1 232 216.4 221.3 216.4 208C216.4 194.7 227.1 184 240.4 184C253.6 184 264.4 194.7 264.4 208zM376.4 208C376.4 194.7 387.1 184 400.4 184C413.6 184 424.4 194.7 424.4 208C424.4 221.3 413.6 232 400.4 232C387.1 232 376.4 221.3 376.4 208zM321.1 353.4C328.1 307.3 367.9 272 416 272C444.7 272 470.5 284.6 488 304.5C497.4 299.1 508.4 296 520 296C553.9 296 581.6 322.3 583.9 355.6C616.4 365.8 640 396.1 640 432C640 476.2 604.2 512 560 512H336C291.8 512 256 476.2 256 432C256 392.9 284 360.4 321.1 353.4zM416 304C380.7 304 352 332.7 352 368V384H336C309.5 384 288 405.5 288 432C288 458.5 309.5 480 336 480H560C586.5 480 608 458.5 608 432C608 407.3 589.4 387 565.5 384.3L548.5 382.4L551.5 365.6C551.8 363.8 552 361.9 552 360C552 342.3 537.7 328 520 328C510.8 328 502.4 331.9 496.6 338.2L482 353.8L471.1 335.4C459.9 316.6 439.4 304 416 304V304z"/></svg>
